X:1
T:Santa Clara, CMD
T:Santa Clara, CMD
T:Ada Rose Gibbs (1864-1905)
T:Public Domain Courtesy of the Cyber Hymnal™
C:Ada Rose Gibbs (1864-1905)
Z:Public Domain
Z:Courtesy of the Cyber Hymnal™
%%score ( 1 2 ) ( 3 4 )
L:1/8
Q:1/4=108
M:4/4
K:Ab
V:1 treble 
V:2 treble 
V:3 bass 
V:4 bass 
V:1
 E2 | [Ac]3 [Ac] [Ac]2 [GB]2 | A2 [FA]2 [EA]2 AB | c2 E2 F2 [DG]2 | [CA]6 c2 | %5
 [GB]2 [EG]2 E2 [Ec]2 | [EB]2 [EG]2 E2 [EF][EF] | [EG]2 [EA]2 [EG]2 [=DF]2 | E6 E2 | %9
 (EF) GA [EB]2 [Dc]2 | [CA]2 [DF]2 [CA]2 [CE]2 | (EF) (GA) [GB]2 [F=B]2 | [Ec]6 [Fc]2 | %13
 [Fd]3 [Gc] [FB]2 [Fd]2 | [=Ec]2 [EB]2 [FA]2 [Fc]2 | [FB]2 [DF]2 [DG]3 [DG] | [CA]6 |] %17
V:2
 E2 | x8 | A2 x2 AB x2 | c2 E2 F2 x2 | x6 (EF) | x4 E2 x2 | x4 E2 x2 | x8 | E6 E2 | E2 E2 x4 | x8 | %11
 E2 E2 x4 | x8 | x8 | x8 | x8 | x6 |] %17
V:3
 [A,C]2 | [A,E]3 [A,E] [A,E]2 [E,D]2 | [A,C]2 [A,D]2 [A,C]2 A,A, | C2 E,2 F,2 [E,B,]2 | %4
 [A,,A,]6 A,2 | [E,E]2 [E,B,]2 [E,G,]2 [A,,A,]2 | [E,G,]2 [E,B,]2 [E,G,]2 [A,,C][A,,C] | %7
 [B,,B,]2 [C,A,]2 [B,,B,]2 [B,,A,]2 | [E,G,]6 [E,G,]2 | (G,A,) B,C [E,D]2 [E,G,]2 | %10
 [A,,A,]2 [D,A,]2 [A,,A,]2 [A,,A,]2 | (G,A,) (B,C) [E,D]2 [E,D]2 | [A,C]6 [F,A,]2 | %13
 [B,,B,]3 [C,=A,] [D,B,]2 [B,,B,]2 | [C,G,]2 [C,C]2 [F,C]2 [F,A,]2 | %15
 [B,,D]2 [B,,B,]2 [E,B,]3 [E,B,] | [A,,A,]6 |] %17
V:4
 x2 | x8 | x6 A,A, | C2 E,2 F,2 x2 | x6 A,2 | x8 | x8 | x8 | x8 | E,2 E,2 x4 | x8 | E,2 E,2 x4 | %12
 x8 | x8 | x8 | x8 | x6 |] %17

